X:1
T:E Major Oliver Holden, 1800
T:Anna Barbauld, 1772 10 10. 10 10. 11 11.
T:Jehovah Reigns No copyright. Transcribed from Plain Psalmody, 1800.
%%score [ 1 2 3 4 ]
L:1/8
M:2/4
K:E
V:1 treble nm="Treble" snm="Tr."
V:2 treble nm="Counter" snm="C."
V:3 treble-8 nm="Tenor" snm="T."
V:4 bass nm="Bass" snm="B."
V:1
 G | G2 G2 | G3 B | BA Gc | B2 ^A2 | !fermata!B2 z A | AG GF | E2 D2 | E3 e | d2 ^B2 | %10
 !fermata!c2 z B | B2 B2 | c3 c | d2 e2 | cB AG | F3 G | AB cd | e3 c | d/c/d/e/f/e/ d/c/ | %19
 B2 ^A2 | !fermata!B2 z B | c2 d2 | e3 B | AG FG | A2 G2 | B2 GB | e>fe/d/c | Bc/d/ eA | G2 F2 | %29
 E2 E2 |] %30
V:2
 E | E2 E2 | E3 E | E2 E2 | F2 E2 | !fermata!D2 z D | D2 E2 | E2 D2 | E3 E | G2 G2 | %10
w: 1.~Je-|ho- vah|reigns! Let|eve- ry|na- tion|hear, And|at His|foot- stool|bow with|ho- ly|
 !fermata!G2 z E | G2 G2 | A3 E | D2 E2 | E2 E2 | D3 E | E2 F2 | G3 E | F2 F2 | F2 F2 | %20
w: fear; Je-|ho- vah|reigns, un-|boun- ded|and a-|lone, And|all cre-|a- tion|hangs be-|neath His|
 !fermata!F2 z E | E2 F2 | G3 E | DE FE | E2 E2 | E2 EG | G3 E | E2 A2 | E2 D2 | E2 E2 |] %30
w: throne: He|reigns a-|lone, let|no in- fer- ior|na- ture|U- surp or|share the|throne of|the Cre-|a- tor.|
V:3
 B | B2 B2 | B3 G | GF Ge | d2 c2 | !fermata!B2 z B | B2 B2 | B2 B2 | G3 A | G2 G2 | %10
 !fermata!G2 z e | e2 e2 | e3 e | f2 B2 | AG AB | B3 B | cd ef | B3 c | B2 B2 | d2 c2 | %20
 !fermata!B2 z G | G2 A2 | G3 e | Be de | c2 B2 | G2 Be | B3 A | G2 e2 | B2 A2 | G2 G2 |] %30
V:4
 E, | E,2 E,2 | E,3 E, | E,2 E,2 | F,2 F,2 | !fermata!B,,2 z B,, | B,,2 E,2 | E,2 B,,2 | E,3 F, | %9
 G,2 G,2 | !fermata!C,2 z E, | E,2 E,2 | A,3 ^A, | B,2 G,2 | A,G, F,E, | B,,3 E, | A,2 F,2 | %17
 E,3 A, | B,2 B,2 | F,2 F,2 | !fermata!B,,2 z E, | E,2 B,,2 | E,3 E, | D,E, F,E, | E,2 E,2 | %25
 E,2 E,E, | E,3 A, | G,2 A,2 | B,2 B,,2 | E,2 E,2 |] %30

